svg/facebook-square.svg

<svg xmlns="http://www.w3.org/2000/svg" viewBox="0 0 64 64" enable-background="new 0 0 64 64"><style type="text/css">.st0{fill:#343434;}</style><path id="Combined-Shape" class="st0" d="M0 4c0-2.2 1.8-4 4-4h56c2.2 0 4 1.8 4 4v56c0 2.2-1.8 4-4 4h-56c-2.2 0-4-1.8-4-4v-56zm25.8 13.3v6.6h-4.8v8.1h4.8v24h9.8v-24h6.6s.6-3.9.9-8.1h-7.4v-5.5c0-.8 1.1-1.9 2.1-1.9h5.2v-8.5h-7.2c-10.3 0-10 8.1-10 9.3z"/></svg>

<?xml version="1.0" encoding="utf-8"?>
<!-- Generator: Adobe Illustrator 21.0.0, SVG Export Plug-In . SVG Version: 6.00 Build 0)  -->
<svg version="1.1" id="Layer_1" xmlns="http://www.w3.org/2000/svg" xmlns:xlink="http://www.w3.org/1999/xlink" x="0px" y="0px"
	 viewBox="0 0 64 64" style="enable-background:new 0 0 64 64;" xml:space="preserve">
<style type="text/css">
	.st0{fill:#343434;}
</style>
<g id="Page-1">
	<g id="Social-icons-_x28_65_x29_" transform="translate(-832.000000, -64.000000)">
		<g id="facebook-square" transform="translate(832.000000, 64.000000)">
			<path id="Combined-Shape" class="st0" d="M0,4c0-2.2,1.8-4,4-4h56c2.2,0,4,1.8,4,4v56c0,2.2-1.8,4-4,4H4c-2.2,0-4-1.8-4-4V4z
				 M25.8,17.3v6.6H21V32h4.8v24h9.8V32h6.6c0,0,0.6-3.9,0.9-8.1h-7.4v-5.5c0-0.8,1.1-1.9,2.1-1.9H43V8h-7.2
				C25.5,8,25.8,16.1,25.8,17.3z"/>
		</g>
	</g>
</g>
</svg>
